!!!!SEGMENT: pl-kk--kk-i-264--001_anonim--rorate-caeli.krn
!!!cenid: 16xx:781
!!!COM: Anonim
!!!COM-rismid: pe30004985
!!!CDT:
!!!CNT:
!!!OTL: Rorate caeli
!!!PDT:
!!!AGN: Sacred
!!!SMS-siglum: PL-Kk
!!!SMS-shelfmark: Kk.I.264
!!!SMS-shelfwork: 001 W
!!!SMS-variant:
!!!SMS-altvar:
!!!NIFC-rismid: 1001143730
!!!URL-scan: http://repozytorium.nifc.pl/skany/pl-kk-nut--i-264
!!!ONB-nifc: UWAGA: utwory w zbiorze: 1. Rorate caeli, 2. Alleluia Ave Maria
!!!AIN: 1 alto 2 empty 1 tenor 1 vox
!!!key:
**kern	**text	**text	**kern	**text	**text	**kern	**text	**text	**kern	**text	**text	**kern	**text	**text
*part5	*part5	*part5	*part4	*part4	*part4	*part3	*part3	*part3	*part2	*part2	*part2	*part1	*part1	*part1
*staff5	*staff5	*staff5	*staff4	*staff4	*staff4	*staff3	*staff3	*staff3	*staff2	*staff2	*staff2	*staff1	*staff1	*staff1
*Iempty	*	*	*Iempty	*	*	*Itenor	*	*	*Ialto	*	*	*Ivox	*	*
*I"Baſso Ripieno.	*	*	*I"Baſso.	*	*	*I"Tenore	*	*	*I"Alto.	*	*	*I"Canto.	*	*
*I'B.	*	*	*I'B.	*	*	*I'T.	*	*	*I'A.	*	*	*I'C.	*	*
*clefF4	*	*	*clefF4	*	*	*clefC4	*	*	*clefC3	*	*	*clefC1	*	*
*k[b-e-]	*	*	*k[b-e-]	*	*	*k[b-e-]	*	*	*k[b-e-]	*	*	*k[b-e-]	*	*
*B-:	*	*	*B-:	*	*	*B-:	*	*	*B-:	*	*	*B-:	*	*
*M3/2	*	*	*M3/2	*	*	*M3/2	*	*	*M3/2	*	*	*M3/2	*	*
=1	=1	=1	=1	=1	=1	=1	=1	=1	=1	=1	=1	=1	=1	=1
!LO:TX:a:t=a Capella.	!	!	!LO:TX:a:t=a Capella.	!	!	!LO:TX:a:t=a Capella	!	!	!LO:TX:a:t=a Capella	!	!	!LO:TX:a:t=a Capella	!	!
2r	.	.	2r	.	.	2r	.	.	2r	.	.	2r	.	.
*	*	*	*	*	*	*2\right	*	*	*	*	*	*2\right	*	*
(2BB-/	Ro-	.	(<2BB-/	Ro-	.	(2B-\	Ro-	.	1f\	Ro-	.	(2dd\	Ro-	.
*2\right	*	*	*2\right	*	*	*	*	*	*	*	*	*	*	*
2F\)	.	.	2F\)	.	.	2A\)	.	.	.	.	.	2cc\)	.	.
=2	=2	=2	=2	=2	=2	=2	=2	=2	=2	=2	=2	=2	=2	=2
*	*	*	*	*	*	*	*	*	*2\right	*	*	*	*	*
2D/	-ra-	.	2D/	-ra-	.	2B-\	-ra-	.	2f\	-ra-	.	2dd\	-ra-	.
2BB-/	-te	.	2BB-/	-te	.	2d\	-te	.	2f\	-te	.	2dd\	-te	.
*	*ij	*	*	*ij	*	*	*ij	*	*	*ij	*	*	*	*
2E-X\	Ro-	.	2E-X\	Ro-	.	2e-\	Ro-	.	2g\	Ro-	.	4cc\	.	.
.	.	.	.	.	.	.	.	.	.	.	.	4b-\	.	.
=3	=3	=3	=3	=3	=3	=3	=3	=3	=3	=3	=3	=3	=3	=3
2F\	-ra-	.	2F\	-ra-	.	2c\	-ra-	.	2f\	-ra-	.	2a\	.	.
2F,\	-te	.	2F,\	-te	.	2c,<\	-te	.	2f,\	-te	.	2a,<\	.	.
*	*Xij	*	*	*Xij	*	*	*Xij	*	*	*Xij	*	*	*	*
2B-\	Ro-	.	2B-\	Ro-	.	2B-\	Ro-	.	2f\	Ro-	.	2dd\	Ro-	.
=4	=4	=4	=4	=4	=4	=4	=4	=4	=4	=4	=4	=4	=4	=4
(2A\	-ra-	.	(2A\	-ra-	.	2c\	-ra-	.	1f\	-ra-	.	1cc\	-ra-	.
2F\)	.	.	2F\)	.	.	2A/	.	.	.	.	.	.	.	.
!	!	!	!	!	!	!LO:SIC:o:t:v=wykreślony dźwięk D	!	!	!	!	!	!	!	!
2B-\	-te	.	2B-\	-te	.	2F/	-te	.	2f\	-te	.	2dd\	-te	.
=5	=5	=5	=5	=5	=5	=5-	=5	=5	=5	=5	=5	=5	=5	=5
1.G\	cae-	.	1.G\	cae-	.	2B-\	cae-	.	1f\	cae-	.	1.b-X\T	cae-	.
.	.	.	.	.	.	1G/	.	.	.	.	.	.	.	.
.	.	.	.	.	.	.	.	.	2en\	.	.	.	.	.
=6	=6	=6	=6	=6	=6	=6	=6	=6	=6	=6	=6	=6	=6	=6
2F,<\	-li	.	2F,\	-li	.	2c,\	-li	.	2f,\	-li	.	2a,<\	-li	.
(2B-\	Ro-	.	(2B-\	Ro-	.	1B-\	Ro-	.	1f\	Ro-	.	1dd\	Ro-	.
2A-X\)	.	.	2A-X\)	.	.	.	.	.	.	.	.	.	.	.
=7	=7	=7	=7	=7	=7	=7	=7	=7	=7	=7	=7	=7	=7	=7
(2G\	-ra-	.	(2G\	-ra-	.	1B-\	-ra-	.	1g\	-ra-	.	1ee-X\	-ra-	.
2E-\)	.	.	2E-\)	.	.	.	.	.	.	.	.	.	.	.
2c\	-te	.	2c\	-te	.	2B-\	-te	.	2g\	-te	.	2ee-\	-te	.
=8	=8	=8	=8	=8	=8	=8	=8	=8	=8	=8	=8	=8	=8	=8
2A-X\	de-	.	2A-X\	de-	.	4c\	Cae-	.	1f\	de-	.	1ee-\	de-	.
.	.	.	.	.	.	4c\	-li	.	.	.	.	.	.	.
2B-\	-su-	.	2B-\	-su-	.	2B-\	de-	.	.	.	.	.	.	.
!	!	!	!	!	!	!LO:TX:a:t=P:problem=custos d	!	!	!	!	!	!	!	!
2BB-/	.	.	2BB-/	.	.	2B-\	-su-	.	2f\	-su-	.	2dd\	-su-	.
!	!	!	!	!	!	!LO:LB:g=original	!	!	!	!	!	!	!	!
=9	=9	=9	=9	=9	=9	=9	=9	=9	=9	=9	=9	=9	=9	=9
1.E-\	-per	.	1E-\	-per	.	2B-,<\	-per,	.	2g,\	-per	.	2ee-,<\	-per,	.
!	!	!	!	!	!	!LO:TX:b:t=a3?	!	!	!	!	!	!	!	!
.	.	.	.	.	.	1e-X\	et	.	1g\	et	.	1b-\	et	.
.	.	.	2r	.	.	.	.	.	.	.	.	.	.	.
!	!	!	!LO:LB:g=original	!	!	!	!	!	!	!	!	!	!	!
=10	=10	=10	=10	=10	=10	=10	=10	=10	=10	=10	=10	=10	=10	=10
00.r	.	.	00.r	.	.	2.e-\	nu-	.	2.g\	nu-	.	2.b-\	nu-	.
.	.	.	.	.	.	4e-\	-bes	.	4g\	-bes	.	4b-\	-bes	.
.	.	.	.	.	.	4d\	plu-	.	4f\	plu-	.	4b-\	plu-	.
!	!	!	!	!	!	!	!	!	!	!	!	!LO:TX:a:t=P:problem=custos c	!	!
.	.	.	.	.	.	4e-\	-ant	.	4g\	-ant	.	4b-\	-ant	.
!	!	!	!	!	!	!	!	!	!LO:LB:g=original	!	!	!LO:LB:g=original	!	!
=11	=11	=11	=11	=11	=11	=11	=11	=11	=11	=11	=11	=11	=11	=11
.	.	.	.	.	.	2c\	jus-	.	2e-X\	ju-	.	2cc\	Jus-	.
.	.	.	.	.	.	2c,<\	-tum	.	2e-\	-stum	.	2cc\	-tum	.
.	.	.	.	.	.	2c\	et	.	2e-\	et	.	4cc\	et	.
.	.	.	.	.	.	.	.	.	.	.	.	4b-\	.	.
=12	=12	=12	=12	=12	=12	=12	=12	=12	=12	=12	=12	=12	=12	=12
.	.	.	.	.	.	2.f\	nu-	.	1c\	nu-	.	2.an\	nu-	.
.	.	.	.	.	.	4f\	-bes	.	.	.	.	4a\	-bes	.
.	.	.	.	.	.	4e-X\	plu-	.	2c/	-bes	.	4g\	plu-	.
.	.	.	.	.	.	4f\	-ant	.	.	.	.	4a\	-ant	.
=13	=13	=13	=13	=13	=13	=13	=13	=13	=13	=13	=13	=13	=13	=13
*	*	*	*	*	*	*	*	*	*	*	*	*	*ij	*
.	.	.	.	.	.	(2d\	plu-	.	2B-/	plu-	.	(<2f/	plu-	.
.	.	.	.	.	.	2c\)	.	.	2e-X\	.	.	2an\)	.	.
.	.	.	.	.	.	2B-\	-ant	.	2f\	-ant	.	2b-\	-ant	.
*	*	*	*	*	*	*	*	*	*	*	*	*	*Xij	*
=14	=14	=14	=14	=14	=14	=14	=14	=14	=14	=14	=14	=14	=14	=14
1.r	.	.	1.r	.	.	2e-X\	Ju-	.	(4e-\	Ju-	.	1b-\	Ju-	.
.	.	.	.	.	.	.	.	.	4d\)	.	.	.	.	.
.	.	.	.	.	.	2f\	.	.	1c\	.	.	.	.	.
.	.	.	.	.	.	2F/	.	.	.	.	.	2a\	.	.
!LO:LB:g=original	!	!	!	!	!	!	!	!	!	!	!	!	!	!
=15	=15	=15	=15	=15	=15	=15	=15	=15	=15	=15	=15	=15	=15	=15
2r	.	.	2r	.	.	2B-,<\	-stum	.	2d,<\	-stum	.	2b-,\	-stum	.
1B-\	a-	.	1B-\	a-	.	1B-\	a-	.	1f\	ap-	.	1dd\	a-	.
=16	=16	=16	=16	=16	=16	=16	=16	=16	=16	=16	=16	=16	=16	=16
(2B-\	-pe-	.	(2B-\	-pe-	.	1B-\	-pe-	.	1f\	-er-	.	2.dd\	-pe-	.
2D\)	.	.	2D\)	.	.	.	.	.	.	.	.	.	.	.
.	.	.	.	.	.	.	.	.	.	.	.	4cc\	-ri-	.
2E-\	-ri-	.	2E-\	-ri-	.	2B-\	-ri-	.	2g\	-i-	.	4b-\	-a-	.
.	.	.	.	.	.	.	.	.	.	.	.	4cc\	.	.
=17	=17	=17	=17	=17	=17	=17	=17	=17	=17	=17	=17	=17	=17	=17
(2B-\	-a-	.	(2B-\	-a-	.	1B-\	-a-	.	1f\	-a-	.	1dd\	.	.
2D\)	.	.	2D\)	.	.	.	.	.	.	.	.	.	.	.
2E-\	-tur	.	2E-\	-tur	.	2B-\	-tur	.	2g\	-tur	.	2b-\	-tur	.
!	!	!	!	!	!	!LO:LB:g=original	!	!	!	!	!	!	!	!
=18	=18	=18	=18	=18	=18	=18	=18	=18	=18	=18	=18	=18	=18	=18
2D/	ter-	.	(2D/	ter-	.	2F/	ter-	.	(2d\	Ter-	.	(2b-\	Ter-	.
2C/	.	.	2C/	.	.	2A/	.	.	2e-X\)	.	.	2cc\)	.	.
2BB-/	.	.	2BB-/)	.	.	[<2B-\	.	.	2f\	.	.	2dd\	.	.
=19	=19	=19	=19	=19	=19	=19	=19	=19	=19	=19	=19	=19	=19	=19
2F\	.	.	2F\	.	.	2B-\]	.	.	2f\	.	.	2cc\	.	.
2F\	-ra	.	2F\	-ra	.	2A,<\	-ra	.	2f\	-ra	.	2cc\	-ra	.
2r	.	.	2r	.	.	2F/	et	.	2r	.	.	2r	.	.
=20	=20	=20	=20	=20	=20	=20	=20	=20	=20	=20	=20	=20	=20	=20
0.r	.	.	0.r	.	.	2.A/	ger-	.	00.r	.	.	00.r	.	.
.	.	.	.	.	.	4G/	-mi-	.	.	.	.	.	.	.
.	.	.	.	.	.	2F/	-net	.	.	.	.	.	.	.
=21	=21	=21	=21	=21	=21	=21	=21	=21	=21	=21	=21	=21	=21	=21
.	.	.	.	.	.	1G/	Sal-	.	.	.	.	.	.	.
.	.	.	.	.	.	2A\	-va-	.	.	.	.	.	.	.
=22	=22	=22	=22	=22	=22	=22	=22	=22	=22	=22	=22	=22	=22	=22
2r	.	.	2r	.	.	2B-\	-to-	.	.	.	.	.	.	.
2r	.	.	2r	.	.	2B-,<\	-rem	.	.	.	.	.	.	.
2BB-/	et	.	2BB-/	et	.	2d\	et	.	.	.	.	.	.	.
=23	=23	=23	=23	=23	=23	=23	=23	=23	=23	=23	=23	=23	=23	=23
2.D\	ger-	.	2.D\	ger-	.	2.B-\	ger-	.	.	.	.	.	.	.
4C/	-mi-	.	4C/	-mi-	.	4c\	-mi-	.	.	.	.	.	.	.
2BB-/	-net	.	2BB-/	-net	.	2d\	-net	.	.	.	.	.	.	.
=24	=24	=24	=24	=24	=24	=24	=24	=24	=24	=24	=24	=24	=24	=24
!	!	!	!	!	!	!	!	!	!	!	!	!LO:TX:a:t=P:problem=custos f	!	!
*2\left	*	*	*	*	*	*	*	*	*	*	*	*	*	*
2D\	.	.	1D\	Sal-	.	1B-\	Sal-	.	00.r	.	.	1.r	.	.
*2\right	*	*	*	*	*	*	*	*	*	*	*	*	*	*
2D\	Sal-	.	.	.	.	.	.	.	.	.	.	.	.	.
2En\	-va-	.	2En\	-va-	.	2B-\	-va-	.	.	.	.	.	.	.
!	!	!	!	!	!	!	!	!	!	!	!	!LO:LB:g=original	!	!
=25	=25	=25	=25	=25	=25	=25	=25	=25	=25	=25	=25	=25	=25	=25
2F\	-to-	.	2F\	-to-	.	2B-\	-to-	.	.	.	.	2r	.	.
2F,<\	-rem	.	2F\	-rem	.	2An,</	-rem	.	.	.	.	2r	.	.
2F\	et	.	2F\	et	.	2A/	et	.	.	.	.	2f/	et	.
=26	=26	=26	=26	=26	=26	=26	=26	=26	=26	=26	=26	=26	=26	=26
2.F\	ger-	.	2.F\	ger-	.	2.F/	ger-	.	.	.	.	2.a\	ger-	.
4F\	-mi-	.	4F\	-mi-	.	4G/	-mi-	.	.	.	.	4g\	-mi-	.
!LO:TX:a:t=P:problem=custos e-	!	!	!LO:TX:a:t=P:problem=custos es	!	!	!	!	!	!	!	!	!	!	!
2F\	-net	.	2F\	-net	.	2A/	-net	.	.	.	.	2f/	-net	.
!LO:LB:g=original	!	!	!LO:LB:g=original	!	!	!	!	!	!	!	!	!	!	!
=27	=27	=27	=27	=27	=27	=27	=27	=27	=27	=27	=27	=27	=27	=27
2E-\	Sal-	.	2E-\	Sal-	.	1B-\	Sal-	.	.	.	.	1g\	Sal-	.
2D\	.	.	2D\	.	.	.	.	.	.	.	.	.	.	.
2C/	-va-	.	2C/	-va-	.	2c\	-va-	.	.	.	.	2a\	-va-	.
!	!	!	!	!	!	!LO:LB:g=original	!	!	!	!	!	!	!	!
=28	=28	=28	=28	=28	=28	=28	=28	=28	=28	=28	=28	=28	=28	=28
2BB-/	-to-	.	2BB-/	-to-	.	2d\	-to-	.	2r	.	.	2b-\	-to-	.
2BB-,</	-rem	.	2BB-,/	-rem	.	2d\	-rem	.	2r	.	.	2b-,\	-rem	.
!	!	!	!	!	!	!	!	!	!LO:TX:a:t=P:problem=custos d	!	!	!	!	!
2B-\	et	.	2B-\	et	.	2r	.	.	2B-/	et	.	2dd\	et	.
!	!	!	!	!	!	!	!	!	!LO:LB:g=original	!	!	!	!	!
=29	=29	=29	=29	=29	=29	=29	=29	=29	=29	=29	=29	=29	=29	=29
2.B-\	ger-	.	2.B-\	ger-	.	0.r	.	.	2.d\	ger-	.	2.b-\	ger-	.
4B-\	-mi-	.	4B-\	-mi-	.	.	.	.	4c/	-mi-	.	4cc\	-mi-	.
2B-\	-net	.	2B-\	-net	.	.	.	.	2B-/	-net	.	2dd\	-net	.
=30	=30	=30	=30	=30	=30	=30	=30	=30	=30	=30	=30	=30	=30	=30
2B-\	Sal-	.	(2B-\	Sal-	.	.	.	.	1d\	Sal-	.	1f/	Sal-	.
2An\	.	.	2An\)	.	.	.	.	.	.	.	.	.	.	.
2G\	-va-	.	2G\	-va-	.	.	.	.	2en\	-va-	.	2g/	-va-	.
=31	=31	=31	=31	=31	=31	=31	=31	=31	=31	=31	=31	=31	=31	=31
2F\	-to-	.	2F\	-to-	.	2r	.	.	2f\	-to-	.	2a\	-to-	.
2F,<\	-rem	.	2F,\	-rem	.	2r	.	.	2f,\	-rem	.	2a\	-rem	.
2F\	et	.	2F\	et	.	2A\	et	.	2f\	et	.	2cc\	et	.
=32	=32	=32	=32	=32	=32	=32	=32	=32	=32	=32	=32	=32	=32	=32
2.A\	ger-	.	2.A\	ger-	.	2.A\	ger-	.	2.f\	ger-	.	2.cc\	ger-	.
4G\	-mi-	.	4G\	-mi-	.	4B-\	-mi-	.	4en\	-mi-	.	4b-\	-mi-	.
2F\	-net	.	2F\	-net	.	2c\	-net	.	2f\	-net	.	2a\	-net	.
=33	=33	=33	=33	=33	=33	=33	=33	=33	=33	=33	=33	=33	=33	=33
1G\	Sal-	.	1G\	Sal-	.	1B-\	Sal-	.	1f\	Sal-	.	1dd\	Sal-	.
2A\	-va-	.	2A\	-va-	.	2c\	-va-	.	(4f\	-va-	.	4a\	-va-	.
.	.	.	.	.	.	.	.	.	4e-X\)	.	.	4g\	.	.
=34	=34	=34	=34	=34	=34	=34	=34	=34	=34	=34	=34	=34	=34	=34
2B-\	-to-	.	2B-\	-to-	.	2d\	-to-	.	2d\	-to-	.	2f/	to-	.
2BB-,</	-rem	.	2BB-,/	-rem	.	2d,\	-rem	.	2d,<\	-rem	.	2f,</	-rem	.
2G\	Sal-	.	2G\	Sal-	.	2d\	Sal-	.	2d\	Sal-	.	2b-\	Sal-	.
!	!	!	!	!	!	!	!	!	!	!	!	!LO:LB:g=original	!	!
=35	=35	=35	=35	=35	=35	=35	=35	=35	=35	=35	=35	=35	=35	=35
2E-X\	-va-	.	2E-X\	-va-	.	2c\	-va-	.	4e-X\	-va-	.	2b-\	-va-	.
.	.	.	.	.	.	.	.	.	4d\	.	.	.	.	.
2F\	-to-	.	2F\	-to-	.	1c\	-to-	.	1c\	-to-	.	2b-\	-to-	.
!LO:TX:a:t=P:problem=custos b	!	!	!LO:TX:a:t=P:problem=custos b	!	!	!	!	!	!	!	!	!	!	!
2FF/	.	.	2FF/	.	.	.	.	.	.	.	.	2a\	.	.
!LO:LB:g=original	!	!	!LO:LB:g=original	!	!	!	!	!	!	!	!	!	!	!
=36	=36	=36	=36	=36	=36	=36	=36	=36	=36	=36	=36	=36	=36	=36
2BB-,</	-rem	.	2BB-/	-rem	.	2d,<\	-rem	.	2d,<\	-rem,	.	2b-,\	-rem.	.
2E-\	Sal-	al-	2E-\	Sal-	al-	2e-X\	Sal-	al-	2g\	Sal-	al-	2b-\	Sal-	Al-
2D\	-va-	-le-	2D\	-va-	-le-	2f\	-va-	-le-	2f\	-va-	-le-	2dd\	-va-	-le-
=37	=37	=37	=37	=37	=37	=37-	=37	=37	=37	=37	=37	=37-	=37	=37
1.E-\	-to-	-lu-	1.E-\	-to-	-lu-	1.B-\	-to-	-lu-	1.g\	-to-	-lu-	1.b-\	-to-	-lu-
=38	=38	=38	=38-	=38	=38	=38	=38	=38	=38	=38	=38	=38-	=38	=38
0.BB-/;	-rem.	-ia.	0.BB-/;	-rem.	-ia.	0.B-\;	-rem.	-ia.	0.f\;	-rem	-ia.	0.dd\;	-rem	-ia
=39	=39	=39	=39	=39	=39	=39	=39	=39	=39	=39	=39	=39	=39	=39
*M2/2	*	*	*M2/2	*	*	*M2/2	*	*	*M2/2	*	*	*M2/2	*	*
*met(c|)	*	*	*met(c|)	*	*	*met(c|)	*	*	*met(c|)	*	*	*met(c|)	*	*
!LO:TX:a:t=Lente	!	!	!	!	!	!	!	!	!	!	!	!	!	!
4r	.	.	4r	.	.	4r	.	.	4r	.	.	4r	.	.
4F\	Be-	.	4F\	Be-	.	4A\	Be-	.	4f\	Be-	.	4cc\	.	Be-
4F\	-ne-	.	4F\	-ne-	.	4A\	-ne-	.	4f\	-ne-	.	4cc\	.	-ne-
4G\	-di-	.	4G\	-di-	.	4B-\	-di-	.	4en\	-di-	.	4b-X\	.	-di-
=40	=40	=40	=40	=40	=40	=40	=40	=40	=40	=40	=40	=40	=40	=40
(4A\	-xi-	.	(4A\	-xi-	.	2.A/	-xi-	.	2f\	-xi-	.	(4cc\	.	-xi-
4G\)	.	.	4G\)	.	.	.	.	.	.	.	.	4b-\)	.	.
(4A\	-sti	.	(4A\	-sti	.	.	.	.	2f\	-sti	.	(4cc\	.	-sti
4F\)	.	.	4F\)	.	.	4A/	-sti	.	.	.	.	4a\)	.	.
=41	=41	=41	=41	=41	=41	=41	=41	=41	=41	=41	=41	=41	=41	=41
2c\	Do-	.	2c\	Do-	.	2G/	Do-	.	2en\	Do-	.	2cc\	.	Do-
4c\	-mi-	.	4c\	-mi-	.	4G/	-mi-	.	4e\	-mi-	.	4cc\	.	-mi-
4B-X\	-ne	.	4B-X\	-ne	.	4G/	-ne	.	4e\	-ne	.	4cc\	.	-ne
=42	=42	=42	=42	=42	=42	=42-	=42	=42	=42	=42	=42	=42	=42	=42
2A\	Ter-	.	2A\	Ter-	.	2c\	Ter-	.	(4f\	ter-	.	4a\	.	ter-
.	.	.	.	.	.	.	.	.	4a\)	.	.	4cc\	.	.
2B-X\	-ram	.	2B-X\	-ram	.	2d\	-ram	.	(4g\	-ram	.	(4b-\	.	-ram
.	.	.	.	.	.	.	.	.	4f\)	.	.	4a\)	.	.
=43	=43	=43	=43	=43	=43	=43	=43	=43	=43	=43	=43	=43	=43	=43
2c\	tu-	.	2c\	tu-	.	1c\	tu-	.	2f\	Tu-	.	1g\	.	tu-
2C/	.	.	2C/	.	.	.	.	.	2en\	.	.	.	.	.
=44	=44	=44	=44	=44	=44	=44-	=44	=44	=44	=44	=44	=44	=44	=44
2F\	-am	.	2F\	-am	.	2c,\	-am	.	2f,\	-am	.	2a,<\	.	-am
2r	.	.	2r	.	.	4f\	a-	.	4f\	a-	.	4a\	.	a-
.	.	.	.	.	.	4e-X\	-ver-	.	4f\	-ver-	.	4a\	.	-ver-
=45	=45	=45	=45	=45	=45	=45	=45	=45	=45	=45	=45	=45	=45	=45
00r	.	.	00r	.	.	(4d\	-ti-	.	4f\	-ti-	.	2b-\	.	-tiſ-
.	.	.	.	.	.	4c\)	.	.	4e-X\	.	.	.	.	.
.	.	.	.	.	.	4d,\	-sti	.	4f,\	-sti	.	4b-\	.	-ti
.	.	.	.	.	.	4B-\	cap-	.	4d\	cap-	.	4b-\	.	ca-
!	!	!	!	!	!	!	!	!	!	!	!	!LO:LB:g=original	!	!
=46	=46	=46	=46	=46	=46	=46	=46	=46	=46	=46	=46	=46	=46	=46
.	.	.	.	.	.	2e-X\	-ti-	.	2g\	-ti-	.	2b-\	.	-pti-
.	.	.	.	.	.	2d\	-vi-	.	2f\	-vi-	.	2b-\	.	-vi-
=47	=47	=47	=47	=47	=47	=47	=47	=47	=47	=47	=47	=47	=47	=47
.	.	.	.	.	.	2c\	-ta-	.	2e-X\	-ta-	.	2a\	.	-ta-
!	!	!	!	!	!	!	!	!	!	!	!	!LO:TX:a:t=P:problem=kasawnik na początku taktu	!	!
.	.	.	.	.	.	2B-\	-tem	.	4d\	-tem	.	2bn\	.	-tem
.	.	.	.	.	.	.	.	.	4e-\	.	.	.	.	.
=48	=48	=48	=48	=48	=48	=48	=48	=48	=48	=48	=48	=48	=48	=48
.	.	.	.	.	.	(4A\	Ja-	.	(4f\	Ja-	.	4cc\	.	Ja-
.	.	.	.	.	.	4B-\)	.	.	4d\)	.	.	2b-\	.	.
!	!	!	!	!	!	!	!	!	!LO:TX:a:t=P:problem=custos d	!	!	!	!	!
.	.	.	.	.	.	4f\	.	.	2c/	.	.	.	.	.
.	.	.	.	.	.	4F/	.	.	.	.	.	4a\	.	.
!	!	!	!	!	!	!	!	!	!LO:LB:g=original	!	!	!	!	!
=49	=49	=49	=49	=49	=49	=49	=49	=49	=49	=49	=49	=49	=49	=49
4r	.	.	4r	.	.	4B-,<\	-cob,	.	4d,\	-cob,	.	4b-,\	.	-cob
4B-\	Cap-	.	4B-\	Cap-	.	4B-\	cap-	.	4f\	cap-	.	4dd\	.	cap-
4B-\	-ti-	.	4B-\	-ti-	.	4B-\	-ti-	.	4f\	-ti-	.	4dd\	.	-ti-
!	!	!	!	!	!	!LO:TX:a:t=P:problem=custos c	!	!	!	!	!	!	!	!
4B-\	-vi-	.	4B-\	-vi-	.	4B-\	-vi-	.	4f\	-vi-	.	4dd\	.	-vi-
!	!	!	!LO:LB:g=original	!	!	!LO:LB:g=original	!	!	!	!	!	!	!	!
=50	=50	=50	=50	=50	=50	=50	=50	=50	=50	=50	=50	=50	=50	=50
2F\	-ta-	.	2F\	-ta-	.	2c\	-ta-	.	2f\	-ta-	.	2cc\	.	-ta-
4B-\	-tem	.	4B-\	-tem	.	4B-,<\	-tem	.	4f,<\	-tem	.	4dd,\	.	-tem
*	*	*	*	*	*	*	*ij	*	*	*ij	*	*	*	*ij
!LO:TX:a:t=P:problem=custos G	!	!	!	!	!	!	!	!	!	!	!	!	!	!
4A\	Cap-	.	4An\	Cap-	.	4B-\	cap-	.	4f\	cap-	.	4dd\	.	cap-
!LO:LB:g=original	!	!	!	!	!	!	!	!	!	!	!	!	!	!
=51	=51	=51	=51	=51	=51	=51	=51	=51	=51	=51	=51	=51	=51	=51
2G\	-ti-	.	2G\	-ti-	.	2B-\	-ti-	.	2en\	-ti-	.	2b-\	.	-ti-
2F\	-vi-	.	2F\	-vi-	.	2A\	-vi-	.	2f\	-vi-	.	2cc\	.	-vi-
=52	=52	=52	=52	=52	=52	=52	=52	=52	=52	=52	=52	=52	=52	=52
2C/	-ta-	.	2C/	-ta-	.	2G/	-ta-	.	2en\	-ta-	.	2cc\	.	-ta-
2F\	-tem	.	2F\	-tem	.	2A,<\	-tem	.	2f,\	-tem	.	2cc\	.	-tem
*	*	*	*	*	*	*	*Xij	*	*	*Xij	*	*	*	*Xij
=53	=53	=53	=53	=53	=53	=53	=53	=53	=53	=53	=53	=53	=53	=53
2BB-/	Ja-	.	2BB-/	Ja-	.	2B-\	Ja-	.	2f\	Cap-	.	(4b-\	.	ca-
.	.	.	.	.	.	.	.	.	.	.	.	4dd\)	.	.
2E-X\	.	.	2E-X\	.	.	2G/	.	.	4e-X\	-ti-	.	4cc\	.	-pti-
.	.	.	.	.	.	.	.	.	4d\	-vi-	.	4b-\	.	-vi-
=54	=54	=54	=54	=54	=54	=54	=54	=54	=54	=54	=54	=54	=54	=54
[<1F\	.	.	0F\	.	.	2F/	.	.	2c\	-ta-	.	2a\	.	-ta-
.	.	.	.	.	.	2B-\	.	.	2d\	-tem	.	1b-\	.	-tem
=55	=55	=55	=55	=55	=55	=55	=55	=55	=55-	=55	=55	=55-	=55	=55
1F\]	.	.	.	.	.	1F/	.	.	1c\	Ja-	.	.	.	.
.	.	.	.	.	.	.	.	.	.	.	.	2a\	.	Ja-
=56-	=56	=56	=56	=56	=56	=56-	=56	=56	=56	=56	=56	=56-	=56	=56
0BB-/;	cob.	.	0BB-/;	cob.	.	0F/;	-cob.	.	0d\;	-cob.	.	0b-\;	.	-cob.
=57	=57	=57	=57	=57	=57	=57	=57	=57	=57	=57	=57	=57	=57	=57
*M3/2	*	*	*M3/2	*	*	*M3/2	*	*	*M3/2	*	*	*M3/2	*	*
2.G\	Glo-	.	2.G\	Glo-	.	2.B-\	Glo-	.	2.d\	Glo-	.	2.g/	.	Glo-
4G\	-ri-	.	4G\	-ri-	.	4B-\	-ri-	.	4d\	-ri-	.	4g/	.	-ri-
2G\	-a	.	2G\	-a	.	2B-\	-a	.	2d\	-a	.	2g/	.	-a
=58	=58	=58	=58	=58	=58	=58	=58	=58	=58	=58	=58	=58-	=58	=58
1D\	Pa-	.	1D\	Pa-	.	1A\	Pa-	.	1d\	Pa-	.	1f#X/	.	Pa-
!	!	!	!	!	!	!	!	!	!LO:TX:a:t=P:problem=custos e-	!	!	!	!	!
2G\	-tri	.	2G\	-tri	.	2B-\	-tri	.	2d\	-tri	.	2g/	.	-tri
!	!	!	!	!	!	!	!	!	!LO:LB:g=original	!	!	!LO:LB:g=original	!	!
=59	=59	=59	=59	=59	=59	=59	=59	=59	=59	=59	=59	=59	=59	=59
2.E-X\	glo-	.	2.E-X\	glo-	.	2.G/	Glo-	.	2.e-X,\	Glo-	.	2.b-\	.	Glo-
4E-\	-ri-	.	4E-\	-ri-	.	4G/	-ri-	.	4e-\	-ri-	.	4b-\	.	-ri-
2BB-/	-a	.	2BB-/	-a	.	2d\	-a	.	2f\	-a	.	2b-\	.	-a
=60	=60	=60	=60	=60	=60	=60	=60	=60	=60	=60	=60	=60	=60	=60
1C/	Fi-	.	1C/	Fi-	.	1e-X\	Fi-	.	2g\	Fi-	.	1b-\	.	Fi-
.	.	.	.	.	.	.	.	.	2.e-\	.	.	.	.	.
!	!	!	!LO:TX:a:t=P:problem=custos b	!	!	!LO:TX:a:t=P:problem=custos d	!	!	!	!	!	!	!	!
2C/	-li-	.	2C/	-li-	.	2c\	-li-	.	.	.	.	2an\	.	-li-
.	.	.	.	.	.	.	.	.	4e-\	-li-	.	.	.	.
!	!	!	!LO:LB:g=original	!	!	!LO:LB:g=original	!	!	!	!	!	!	!	!
=61	=61	=61	=61	=61	=61	=61	=61	=61	=61	=61	=61	=61	=61	=61
2BB-/	-o	.	2BB-,</	-o	.	2d,\	-o	.	2f,\	-o	.	2b-,\	.	-o
2B-\	Glo-	.	2B-\	Glo-	.	2d\	Glo-	.	2f\	Glo-	.	4b-\	.	Glo-
.	.	.	.	.	.	.	.	.	.	.	.	4b-\	.	-ri-
4B-\	-ri-	.	4B-\	-ri-	.	4d\	-ri-	.	4f\	-ri-	.	2b-\	.	-a
!LO:TX:a:t=P:problem=custos B-	!	!	!	!	!	!	!	!	!	!	!	!	!	!
4B-\	-a	.	4B-\	-a	.	4d\	-a	.	4f\	-a	.	.	.	.
!LO:LB:g=original	!	!	!	!	!	!	!	!	!	!	!	!	!	!
=62	=62	=62	=62	=62	=62	=62	=62	=62	=62	=62	=62	=62	=62	=62
1B-\	et	.	1B-\	et	.	1e-X\	et	.	1g\	et	.	1cc\	.	et
2A-X\	Spi-	.	2A-X\	Spi-	.	2A-X\	Spi-	.	2f\	Spi-	.	2cc\	.	Spi-
=63	=63	=63	=63	=63	=63	=63	=63	=63	=63	=63	=63	=63	=63	=63
2.G\	-ri-	.	2.G\	-ri-	.	2.B-\	-ri-	.	2.e-X\	-ri-	.	2.b-\	.	-ri-
4G\	-tu-	.	4G\	-tu-	.	4B-\	-tu-	.	4e-\	-tu-	.	4b-\	.	-tu-
2A-X\	-i	.	2A-X\	-i	.	2c\	-i	.	2e-\	-i	.	(4a-X\	.	-i
.	.	.	.	.	.	.	.	.	.	.	.	4g\)	.	.
=64	=64	=64	=64	=64	=64	=64	=64	=64	=64	=64	=64	=64	=64	=64
1B-\	San-	.	1B-\	San-	.	1.B-\	San-	.	1e-\	San-	.	1.f/	.	San-
2BB-/	.	.	2BB-/	.	.	.	.	.	2d\	.	.	.	.	.
=65	=65	=65	=65	=65	=65	=65	=65	=65	=65	=65	=65	=65	=65	=65
2E-\	-cto.	.	2E-\	-cto.	.	2B-,<\	-cto.	.	2e-,\	-cto.	.	2g,<\	.	-cto
2r	.	.	2r	.	.	2E-X/	Si-	.	2g\	Si-	.	2b-\	.	Si-
2r	.	.	2r	.	.	2F/	-cut	.	2f\	-cut	.	2a-X\	.	-cut
=66	=66	=66	=66	=66	=66	=66	=66	=66	=66	=66	=66	=66	=66	=66
1.r	.	.	1.r	.	.	2.G/	e-	.	2.e-\	e-	.	2.b-\	.	e-
.	.	.	.	.	.	4F/	-rat	.	4e-\	-rat	.	4a-X\	.	-rat
.	.	.	.	.	.	4G/	in	.	4e-\	in	.	4b-\	.	in
!LO:TX:a:t=P:problem=custos BB-	!	!	!	!	!	!	!	!	!LO:TX:a:t=P:problem=custos d	!	!	!	!	!
.	.	.	.	.	.	4E-/	prin-	.	4e-\	prin-	.	4g\	.	prin-
!LO:PB:g=original	!	!	!	!	!	!	!	!	!LO:LB:g=original	!	!	!	!	!
=67	=67	=67	=67-	=67	=67	=67	=67	=67	=67	=67	=67	=67	=67	=67
2r	.	.	2r	.	.	4B-\	-ci-	.	4d\	-ci-	.	4f/	.	-ci-
.	.	.	.	.	.	4B-\	-pi-	.	4d\	-pi-	.	4f/	.	-pi-
2BB-/	Si-	.	2BB-/	Si-	.	2B-,\	-o.	.	2d,\	-o	.	2f/	.	-o
2C/	-cut	.	2C/	-cut	.	4An\	Si-	.	4e-X\	in	.	4cc\	.	in
!	!	!	!	!	!	!	!	!	!	!	!	!LO:TX:a:t=P:problem=custos b-	!	!
.	.	.	.	.	.	4A\	-cut	.	4e-\	prin-	.	4cc\	.	prin-
!	!	!	!	!	!	!	!	!	!	!	!	!LO:LB:g=original	!	!
=68	=68	=68	=68	=68	=68	=68	=68	=68	=68	=68	=68	=68	=68	=68
2.D/	e-	.	2.D/	e-	.	2.B-\	e-	.	(2.f\	-ci-	.	1.b-X\	.	-ci-
4C/	-rat	.	4C/	-rat	.	4c\	-rat	.	4e-\	.	.	.	.	.
4D/	in	.	4D/	in	.	4B-\	in	.	4f\)	.	.	.	.	.
4BB-/	prin-	.	4BB-/	prin-	.	4d\	prin-	.	4d\	.	.	.	.	.
=69	=69	=69	=69	=69	=69	=69	=69	=69	=69	=69	=69	=69-	=69	=69
2.F\	-ci-	.	2.F\	-ci-	.	2.An/	-ci-	.	2.f\	.	.	2.cc\	.	-pi-
4F\	-pi-	.	4F\	-pi-	.	4A/	-pi-	.	4f\	-pi-	.	4cc\	.	-o
!	!	!	!	!	!	!LO:TX:a:t=P:problem=custos a	!	!	!	!	!	!	!	!
2F\	-o	.	2F\	-o	.	2A,/	-o	.	2f\	-o	.	2cc\	.	et
!	!	!	!	!	!	!LO:PB:g=original	!	!	!	!	!	!	!	!
=70	=70	=70	=70	=70	=70	=70	=70	=70	=70	=70	=70	=70	=70	=70
2F#X\	et	.	2F#X\	et	.	2A/	et	.	2d\	et	.	2cc\	.	nunc
2D\	nunc	.	2D\	nunc	.	2A/	nunc	.	2d\	nunc	.	2cc\	.	et
!	!	!	!LO:TX:a:t=P:problem=custos c	!	!	!	!	!	!	!	!	!	!	!
2G\	et	.	2G\	et	.	2G/	et	.	2d\	et	.	2b-\	.	sem-
!	!	!	!LO:LB:g=original	!	!	!	!	!	!	!	!	!	!	!
=71	=71	=71	=71	=71	=71	=71	=71	=71	=71	=71	=71	=71	=71	=71
2C/	sem-	.	2C/	sem-	.	1G/	sem-	.	2e-X\	sem-	.	1.an\	.	.
1D\	.	.	1D\	.	.	.	.	.	1d\	.	.	.	.	.
.	.	.	.	.	.	2F#X/	.	.	.	.	.	.	.	.
=72	=72	=72	=72	=72	=72	=72	=72	=72	=72	=72	=72	=72	=72	=72
2GG,</	-per,	.	2GG,</	-per,	.	2G,</	-per	.	2d,<\	-per	.	2b-,\	.	-per,
2E-\	et	.	2E-\	et	.	2G,</	et	.	2e-X\	et	.	2b-\	.	et
2C/	in	.	2C/	in	.	2A/	in	.	2e-\	in	.	2cc\	.	in
=73	=73	=73	=73	=73	=73	=73	=73	=73	=73	=73	=73	=73	=73	=73
2.BB-/	sae-	.	2.BB-/	sae-	.	2.B-\	sae-	.	2.f\	sae-	.	2.dd\	.	sae-
4BB-/	-cu-	.	4BB-/	-cu-	.	4B-\	-cu-	.	4f\	-cu-	.	4dd\	.	-cu-
2BB-/	-la	.	2BB-/	-la	.	2B-\	-la	.	2f\	-la	.	2dd\	.	-la
=74	=74	=74	=74	=74	=74	=74	=74	=74	=74	=74	=74	=74	=74	=74
2.F\	sae-	.	2.F\	sae-	.	2.A\	sae-	.	2.f\	sae-	.	2.cc\	.	sae-
4D\	-cu-	.	4D\	-cu-	.	4B-\	-cu-	.	4f\	-cu-	.	4dd\	.	-cu-
2E-\	-lo-	.	2E-\	-lo-	.	2e-\	-lo-	.	2g\	-lo-	.	2b-\	.	-lo-
!	!	!	!	!	!	!	!	!	!LO:LB:g=original	!	!	!	!	!
=75	=75	=75	=75	=75	=75	=75	=75	=75	=75	=75	=75	=75	=75	=75
2BB-/	-rum	.	2BB-/	-rum	.	2d\	-rum	.	2f\	-rum	.	2b-,\	.	-rum
2F\	a-	.	2F\	a-	.	1c\	a-	.	1f\	a-	.	2b-\	.	a-
2FF/	.	.	2FF/	.	.	.	.	.	.	.	.	2a\	.	.
!LO:LB:g=original	!	!	!	!	!	!	!	!	!	!	!	!	!	!
=76	=76	=76	=76	=76	=76	=76	=76	=76	=76	=76	=76	=76	=76	=76
2BB-,</	-men	.	2BB-,</	-men	.	2d,\	-men	.	2f,\	-men	.	2b-\	.	-men
*	*	*	*	*	*	*	*ij	*	*	*ij	*	*	*	*ij
2F\	a-	.	2F\	a-	.	2A\	a-	.	2f\	a-	.	2cc\	.	a-
2G\	.	.	2G\	.	.	2B-\	-men	.	2e-\	-men	.	2b-\	.	men
*	*	*	*	*	*	*	*Xij	*	*	*Xij	*	*	*	*Xij
=77	=77	=77	=77	=77	=77	=77	=77	=77	=77	=77	=77	=77	=77	=77
2E-\	.	.	2E-\	.	.	4e-\	a-	.	2g\	a-	.	1b-\	.	a-
.	.	.	.	.	.	4d\	.	.	.	.	.	.	.	.
2F\	.	.	2F\	.	.	1c\	.	.	1f\	.	.	.	.	.
2FF/	.	.	2FF/	.	.	.	.	.	.	.	.	2a\	.	.
=78	=78	=78	=78-	=78	=78	=78	=78	=78	=78	=78	=78	=78-	=78	=78
00.BB-/;	-men.	.	00.BB-/;	-men.	.	00.d\;	-men.	.	00.f\;	-men.	.	00.b-\;	.	-men.
==	==	==	==	==	==	==	==	==	==	==	==	==	==	==
*-	*-	*-	*-	*-	*-	*-	*-	*-	*-	*-	*-	*-	*-	*-
!!!system-decoration: [(s1,s2,s3,s4,s5)]
!!!RDF**kern: > = above
!!!RDF**kern: < = below
!!!EED: Leszek Kubiak
!!!EEV: 2021-03-01
!!!ENC: Berenika Jozajtis
!!!END: 2021-02-15
